assets/Spaghetti/Flat/spaghetti_flat.svg

<svg width="32" height="32" viewBox="0 0 32 32" fill="none" xmlns="http://www.w3.org/2000/svg">
<path d="M30.02 3.49L23.27 3.76C22.87 2.73 21.87 2 20.69 2H12.97C12.56 2 12.22 2.34 12.22 2.75C12.22 3.16 12.56 3.5 12.97 3.5H19.3V4.02H12.97C12.56 4.02 12.22 4.36 12.22 4.77C12.22 5.18 12.56 5.52 12.97 5.52H19.3V6.04H12.97C12.56 6.04 12.22 6.38 12.22 6.79C12.22 7.2 12.56 7.54 12.97 7.54H20.69C21.86 7.54 22.86 6.81 23.27 5.78L30.02 6.05V3.49Z" fill="#D3D3D3"/>
<path d="M20.74 30.2301H11.46C7.43999 30.2301 4.17999 26.9701 4.17999 22.9501V20.0701H28.02V22.9501C28.02 26.9701 24.76 30.2301 20.74 30.2301Z" fill="#9B9B9B"/>
<path d="M22.01 14.85C25.21 14.85 27.81 17.45 27.81 20.65C27.81 23.85 25.21 26.45 22.01 26.45H10.02C6.82 26.45 4.22 23.85 4.22 20.65C4.22 17.45 6.82 14.85 10.02 14.85H22.01ZM22.01 12.63H10.02C5.59 12.63 2 16.22 2 20.65C2 25.08 5.59 28.67 10.02 28.67H22.01C26.44 28.67 30.03 25.08 30.03 20.65C30.02 16.22 26.43 12.63 22.01 12.63Z" fill="#D3D3D3"/>
<path d="M22.01 14.85C25.21 14.85 27.81 17.45 27.81 20.65C27.81 23.85 25.21 26.45 22.01 26.45H10.02C6.81997 26.45 4.21997 23.85 4.21997 20.65C4.21997 17.45 6.81997 14.85 9.95997 14.85H21.95" fill="#D3D3D3"/>
<path d="M18.52 2C18.7962 2 19.02 2.22386 19.02 2.5V12.4589C21.9174 13.0613 24.4905 14.5424 26.46 16.61C29.98 20.32 27.29 26.44 22.18 26.44H10.02C4.91001 26.44 2.22001 20.31 5.74001 16.61C7.88758 14.3468 10.772 12.7863 14.01 12.3117V4.51001C14.01 4.23387 14.2339 4.01001 14.51 4.01001C14.7862 4.01001 15.01 4.23387 15.01 4.51001V12.2009C15.3371 12.1763 15.6672 12.1626 16 12.1603V6.15997C16 5.88383 16.2239 5.65997 16.5 5.65997C16.7762 5.65997 17 5.88383 17 6.15997V12.1879C17.3435 12.2092 17.6836 12.2427 18.02 12.2879V2.5C18.02 2.22386 18.2439 2 18.52 2Z" fill="#FCD53F"/>
<path d="M25.6693 18.0329C26.0654 18.0215 26.3957 18.3333 26.4071 18.7294C26.4975 21.8717 24.0349 24.9674 20.35 24.9674H11.65C7.96579 24.9674 5.50245 21.8825 5.59286 18.7294C5.60422 18.3334 5.93448 18.0215 6.33053 18.0329C6.72658 18.0442 7.03843 18.3745 7.02707 18.7706C6.95748 21.1975 8.85414 23.5326 11.65 23.5326H20.35C23.145 23.5326 25.0424 21.1883 24.9729 18.7706C24.9615 18.3746 25.2733 18.0443 25.6693 18.0329Z" fill="#FFF478"/>
<path d="M20.79 13.6601L20.68 13.6201C17.76 12.4701 14.52 12.4701 11.6 13.6201L11.5 13.6601C9.89998 14.2901 8.84998 15.8301 8.84998 17.5501C8.84998 19.2801 9.90998 20.8301 11.53 21.4501L11.74 21.5301C14.67 22.6601 17.91 22.6401 20.82 21.4701C22.41 20.8301 23.45 19.3001 23.45 17.5901V17.5501C23.45 15.8401 22.39 14.2901 20.79 13.6601Z" fill="#F8312F"/>
<path d="M16.1 16.3799C16.9174 16.3799 17.58 15.7173 17.58 14.8999C17.58 14.0825 16.9174 13.4199 16.1 13.4199C15.2827 13.4199 14.62 14.0825 14.62 14.8999C14.62 15.7173 15.2827 16.3799 16.1 16.3799Z" fill="#6D4534"/>
<path d="M13.01 20.2099C13.8274 20.2099 14.49 19.5473 14.49 18.7299C14.49 17.9126 13.8274 17.2499 13.01 17.2499C12.1926 17.2499 11.53 17.9126 11.53 18.7299C11.53 19.5473 12.1926 20.2099 13.01 20.2099Z" fill="#6D4534"/>
<path d="M20.99 18.8399C20.99 19.6573 20.3274 20.3199 19.51 20.3199C18.6926 20.3199 18.03 19.6573 18.03 18.8399C18.03 18.0225 18.6926 17.3599 19.51 17.3599C20.3274 17.3599 20.99 18.0225 20.99 18.8399Z" fill="#6D4534"/>
</svg>

<svg xmlns="http://www.w3.org/2000/svg" width="32" height="32" fill="none"><path fill="#D3D3D3" d="m30.02 3.49-6.75.27C22.87 2.73 21.87 2 20.69 2h-7.72c-.41 0-.75.34-.75.75s.34.75.75.75h6.33v.52h-6.33c-.41 0-.75.34-.75.75s.34.75.75.75h6.33v.52h-6.33c-.41 0-.75.34-.75.75s.34.75.75.75h7.72c1.17 0 2.17-.73 2.58-1.76l6.75.27V3.49Z"/><path fill="#9B9B9B" d="M20.74 30.23h-9.28a7.28 7.28 0 0 1-7.28-7.28v-2.88h23.84v2.88a7.28 7.28 0 0 1-7.28 7.28Z"/><path fill="#D3D3D3" d="M22.01 14.85c3.2 0 5.8 2.6 5.8 5.8 0 3.2-2.6 5.8-5.8 5.8H10.02c-3.2 0-5.8-2.6-5.8-5.8 0-3.2 2.6-5.8 5.8-5.8h11.99Zm0-2.22H10.02A8.02 8.02 0 0 0 2 20.65a8.02 8.02 0 0 0 8.02 8.02h11.99a8.02 8.02 0 0 0 8.02-8.02c-.01-4.43-3.6-8.02-8.02-8.02Z"/><path fill="#D3D3D3" d="M22.01 14.85c3.2 0 5.8 2.6 5.8 5.8 0 3.2-2.6 5.8-5.8 5.8H10.02c-3.2 0-5.8-2.6-5.8-5.8 0-3.2 2.6-5.8 5.74-5.8h11.99"/><path fill="#FCD53F" d="M18.52 2a.5.5 0 0 1 .5.5v9.959a14.296 14.296 0 0 1 7.44 4.151c3.52 3.71.83 9.83-4.28 9.83H10.02c-5.11 0-7.8-6.13-4.28-9.83a14.245 14.245 0 0 1 8.27-4.298V4.51a.5.5 0 0 1 1 0v7.69c.327-.024.657-.037.99-.04v-6a.5.5 0 0 1 1 0v6.028c.343.021.684.055 1.02.1V2.5a.5.5 0 0 1 .5-.5Z"/><path fill="#FFF478" d="M25.67 18.033c.395-.012.726.3.737.696.09 3.143-2.372 6.238-6.057 6.238h-8.7c-3.684 0-6.148-3.084-6.057-6.238a.717.717 0 1 1 1.434.042c-.07 2.427 1.827 4.762 4.623 4.762h8.7c2.795 0 4.692-2.345 4.623-4.762a.717.717 0 0 1 .696-.738Z"/><path fill="#F8312F" d="m20.79 13.66-.11-.04a12.38 12.38 0 0 0-9.08 0l-.1.04c-1.6.63-2.65 2.17-2.65 3.89a4.17 4.17 0 0 0 2.68 3.9l.21.08a12.38 12.38 0 0 0 9.08-.06 4.18 4.18 0 0 0 2.63-3.88v-.04c0-1.71-1.06-3.26-2.66-3.89Z"/><path fill="#6D4534" d="M16.1 16.38a1.48 1.48 0 1 0 0-2.96 1.48 1.48 0 0 0 0 2.96ZM13.01 20.21a1.48 1.48 0 1 0 0-2.96 1.48 1.48 0 0 0 0 2.96ZM20.99 18.84a1.48 1.48 0 1 1-2.96 0 1.48 1.48 0 0 1 2.96 0Z"/></svg>
